X:3519
T:Craig's Pipes
T:Gregg's Pipes
T:Cregg's Pipes
S:as recorded by banjo player Kieran Hanrahan
D:also Bothy Band 1975 and Reeltime
N:Solo version. Compare with Martin Mulvihill's book and Rubenzer's Midwest Irish Session Tunes. Transcribed by Alan Ng
R:reel
Z: id:ng-reels-24 transcribed by Alan Ng agng@students.wisc.edu Dec. 12, 1997
M:C|
K:G
DDD||DBBD BAGA|ABGB AGEG|DBBD BAGB|AcBG AGEG|\
DBBD BAGA|ABGB AGED|(3Bcded BcdB|Ac[BD]G AG[DG,]G||\
DG(3GGF (3GGGBG|(3GGG BG AG[EG,]G|DG(3GGF (3GGG [DG,]d|dB[AD]c BG[GG,]E|\
DG(3GGF (3GGG[GG,]G|(3GGG BG AG[EG,]G|DG(3GGF (3GGG [DG,]d|dB[AD]c BGGB||\
[dD]A(3ABd efge|dB[GG,]B AGEG|[dD]A(3ABd efgf|eaaA ageg|\
[aA]A(3ABd efge|dB[GG,]B AGEG|[dD]A(3ABd efgf|ea(3aag {b}aged|]


